; This file was generated with "Universal Gcode Sender 2.0.12"
;
; Tool: 3.0mm
; Depth per pass: 1.0mm
; Feed speed: 1000mm/min
; Plunge speed: 400mm/min
; Safe height: 5.0mm
; Tool step over: 0.3mm
; Spindle speed: 0rpm

G21 ; millimeters
G90 ; absolute coordinate
G17 ; XY plane
G94 ; units per minute feed rate mode
M3 S0 ; Turning on spindle

; Ellipse - On path (1/2)
G0 X0Y0
M03S50
G0 X20.5Y4
M03S100
G1 F400 X20.5Y4Z-0
G1 F1000 X20.5Y4Z-0
G1 X18.915Y4.083Z-0
G1 X17.376Y4.328Z-0
G1 X15.891Y4.726Z-0
G1 X14.467Y5.269Z-0
G1 X13.112Y5.949Z-0
G1 X11.834Y6.758Z-0
G1 X9.54Y8.73Z-0
G1 X7.647Y11.12Z-0
G1 X6.218Y13.864Z-0
G1 X5.697Y15.347Z-0
G1 X5.315Y16.895Z-0
G1 X5.08Y18.499Z-0
G1 X5Y20.15Z-0
G1 X5.08Y21.801Z-0
G1 X5.315Y23.405Z-0
G1 X5.697Y24.953Z-0
G1 X6.218Y26.436Z-0
G1 X7.647Y29.18Z-0
G1 X9.54Y31.57Z-0
G1 X11.834Y33.542Z-0
G1 X13.112Y34.351Z-0
G1 X14.467Y35.031Z-0
G1 X15.891Y35.574Z-0
G1 X17.376Y35.972Z-0
G1 X18.915Y36.217Z-0
G1 X20.5Y36.3Z-0
G1 X22.085Y36.217Z-0
G1 X23.624Y35.972Z-0
G1 X25.109Y35.574Z-0
G1 X26.533Y35.031Z-0
G1 X27.888Y34.351Z-0
G1 X29.166Y33.542Z-0
G1 X31.46Y31.57Z-0
G1 X33.353Y29.18Z-0
G1 X34.782Y26.436Z-0
G1 X35.303Y24.953Z-0
G1 X35.685Y23.405Z-0
G1 X35.92Y21.801Z-0
G1 X36Y20.15Z-0
G1 X35.92Y18.499Z-0
G1 X35.685Y16.895Z-0
G1 X35.303Y15.347Z-0
G1 X34.782Y13.864Z-0
G1 X33.353Y11.12Z-0
G1 X31.46Y8.73Z-0
G1 X29.166Y6.758Z-0
G1 X27.888Y5.949Z-0
G1 X26.533Y5.269Z-0
G1 X25.109Y4.726Z-0
G1 X23.624Y4.328Z-0
G1 X22.085Y4.083Z-0
G1 X20.5Y4Z-0
M03S50
; Text - On path (2/2)
M03S50
G0 X11Y10.5
M03S100
G1 F400 X11Y10.5Z-0
G1 F1000 X11Y10.5Z-0
G1 X11Y12.52Z-0
G1 X26.116Y27.771Z-0
G1 X11.37Y27.771Z-0
G1 X11.37Y30Z-0
G1 X30.158Y30Z-0
G1 X30.158Y27.98Z-0
G1 X15.042Y12.729Z-0
G1 X30.5Y12.729Z-0
G1 X30.5Y10.5Z-0
G1 X11Y10.5Z-0
M03S50
G0 X0Y0

; Turning off spindle
M5
